img/sprite.svg

<svg xmlns="http://www.w3.org/2000/svg" xmlns:xlink="http://www.w3.org/1999/xlink"><symbol id="about-us" viewBox="0 0 18 22">
<path fill-rule="evenodd" clip-rule="evenodd" d="M0 2C0 0.895431 0.895431 0 2 0H16C17.1046 0 18 0.895431 18 2V17C18 18.1046 17.1046 19 16 19H14L10 22V19H2C0.89543 19 0 18.1046 0 17V2ZM8 4H10V6H8V4ZM8 9H6V7H9H10V8V13H12V15H9H6V13H8V9Z"/>
</symbol><symbol id="arrow-down" viewBox="0 0 10 6"><g fill="currentColor">
<path fill-rule="evenodd" clip-rule="evenodd" d="M5.66823 5.39392L9.99579 1.48467L8.65513 0.000549395L4.9979 3.30426L1.34066 0.000549316L0 1.48467L4.32757 5.39392L4.9979 5.99946L5.66823 5.39392Z"/>
</g></symbol><symbol id="breadcrumbs-arrow" viewBox="0 0 6 10"><g fill="currentColor">
<path fill-rule="evenodd" clip-rule="evenodd" d="M5.39337 4.32787L1.48412 0.000300343L-2.99535e-07 1.34096L3.30371 4.9982L-5.86023e-08 8.65543L1.48412 9.99609L5.39337 5.66853L5.99891 4.9982L5.39337 4.32787Z"/>
</g></symbol><symbol id="contacts" viewBox="0 0 19 22">
<path fill-rule="evenodd" clip-rule="evenodd" d="M12.503 0C21.7817 0 17.4242 9.17913 13.1712 13.7082C12.8062 14.0969 12.1998 14.0969 11.8348 13.7082C7.58185 9.17913 3.22432 0 12.503 0ZM12.4981 3.08203C15.9964 3.08203 13.9964 7.19124 12.4988 7.19124C11.0012 7.19124 8.99983 3.08203 12.4981 3.08203ZM4.78353 14.3464C5.05792 14.3154 5.2552 14.0678 5.22417 13.7934C5.19313 13.519 4.94553 13.3217 4.67114 13.3528C4.40458 13.3829 4.12895 13.4378 3.84394 13.5192C3.50811 13.6151 3.19944 13.7491 2.91658 13.9148C2.67832 14.0544 2.59833 14.3607 2.73792 14.599C2.87751 14.8373 3.18382 14.9173 3.42208 14.7777C3.63334 14.6539 3.86452 14.5533 4.1185 14.4808C4.354 14.4135 4.57539 14.37 4.78353 14.3464ZM15.1344 13.8764C14.9002 13.73 14.5917 13.8012 14.4454 14.0354C14.299 14.2695 14.3702 14.578 14.6043 14.7244C15.029 14.9898 15.4335 15.2884 15.7851 15.6179C15.9866 15.8067 16.303 15.7964 16.4918 15.5949C16.6806 15.3934 16.6703 15.077 16.4688 14.8882C16.0598 14.5049 15.6009 14.1679 15.1344 13.8764ZM7.17541 13.8987C6.9407 13.7532 6.63249 13.8255 6.48701 14.0602C6.34153 14.2949 6.41386 14.6032 6.64857 14.7486C7.02058 14.9792 7.34894 15.2924 7.64064 15.6557C7.81353 15.871 8.12824 15.9054 8.34356 15.7325C8.55889 15.5597 8.59328 15.2449 8.42039 15.0296C8.07699 14.6019 7.66692 14.2033 7.17541 13.8987ZM1.9133 16.5415C2.03289 16.2926 1.92805 15.9939 1.67914 15.8743C1.43024 15.7547 1.13152 15.8596 1.01193 16.1085C0.738025 16.6786 0.540075 17.2849 0.396242 17.8738C0.330722 18.1421 0.495072 18.4127 0.763329 18.4782C1.03159 18.5437 1.30217 18.3794 1.36769 18.1111C1.49951 17.5714 1.67669 17.034 1.9133 16.5415ZM17.8778 17.0906C17.8071 16.8236 17.5334 16.6645 17.2665 16.7352C16.9995 16.8059 16.8404 17.0796 16.9111 17.3465C16.9666 17.5563 16.9965 17.7737 16.9965 17.9998C16.9965 18.3094 16.9346 18.5745 16.8293 18.8015C16.7132 19.0521 16.8221 19.3493 17.0726 19.4655C17.3231 19.5817 17.6204 19.4728 17.7365 19.2223C17.9062 18.8563 17.9965 18.4467 17.9965 17.9998C17.9965 17.6845 17.9547 17.381 17.8778 17.0906ZM9.63851 17.096C9.52388 16.8448 9.2273 16.7341 8.97607 16.8487C8.72484 16.9633 8.61411 17.2599 8.72873 17.5112C8.83489 17.7438 8.92919 17.9641 9.01592 18.1667L9.02875 18.1966C9.18771 18.5679 9.39583 18.9036 9.64135 19.2034C9.8163 19.4171 10.1313 19.4485 10.345 19.2735C10.5586 19.0986 10.59 18.7836 10.4151 18.5699C10.2262 18.3392 10.0682 18.0837 9.94802 17.803L9.93425 17.7708L9.93416 17.7706C9.8481 17.5696 9.74965 17.3396 9.63851 17.096ZM12.7853 19.9716C12.5169 19.9064 12.2465 20.071 12.1813 20.3393C12.1161 20.6077 12.2807 20.8781 12.549 20.9433C13.2958 21.1249 14.0729 21.1709 14.7983 21.0783C15.0722 21.0434 15.2659 20.7929 15.2309 20.519C15.1959 20.2451 14.9455 20.0514 14.6716 20.0864C14.0727 20.1628 13.4187 20.1256 12.7853 19.9716ZM1.0191 20.6411C1.03249 20.3653 0.819755 20.1308 0.543937 20.1174C0.26812 20.104 0.0336697 20.3168 0.0202785 20.5926C6.29344e-05 21.009 0.000103191 21.3257 0.000123409 21.4847V21.4848L0.00012624 21.4994C0.00012624 21.7756 0.223984 21.9994 0.500126 21.9994C0.776269 21.9994 1.00013 21.7756 1.00013 21.4994L1.00013 21.4854C1.00011 21.3304 1.00007 21.0331 1.0191 20.6411Z" stroke="none"/>
</symbol><symbol id="news" viewBox="0 0 18 22">
<path fill-rule="evenodd" clip-rule="evenodd" d="M1 0C0.447715 0 0 0.447716 0 1V21C0 21.5523 0.447716 22 1 22H17C17.5523 22 18 21.5523 18 21V1C18 0.447715 17.5523 0 17 0H1ZM3 4H8V9H3V4ZM2 4C2 3.44772 2.44772 3 3 3H8C8.55228 3 9 3.44772 9 4V9C9 9.55228 8.55228 10 8 10H3C2.44772 10 2 9.55228 2 9V4ZM12.9146 3H14.0854H15.5C15.7761 3 16 3.22386 16 3.5C16 3.77614 15.7761 4 15.5 4H14.0854H12.9146H11.5C11.2239 4 11 3.77614 11 3.5C11 3.22386 11.2239 3 11.5 3H12.9146ZM14.0854 6H12.9146H11.5C11.2239 6 11 6.22386 11 6.5C11 6.77614 11.2239 7 11.5 7H12.9146H14.0854H15.5C15.7761 7 16 6.77614 16 6.5C16 6.22386 15.7761 6 15.5 6H14.0854ZM12.9146 9H14.0854H15.5C15.7761 9 16 9.22386 16 9.5C16 9.77614 15.7761 10 15.5 10H14.0854H12.9146H11.5C11.2239 10 11 9.77614 11 9.5C11 9.22386 11.2239 9 11.5 9H12.9146ZM14.0854 13H15.5C15.7761 13 16 12.7761 16 12.5C16 12.2239 15.7761 12 15.5 12H14.0854H3.91465H2.5C2.22386 12 2 12.2239 2 12.5C2 12.7761 2.22386 13 2.5 13H3.91465H14.0854ZM15.5 16H14.0854H3.91465H2.5C2.22386 16 2 15.7761 2 15.5C2 15.2239 2.22386 15 2.5 15H3.91465H14.0854H15.5C15.7761 15 16 15.2239 16 15.5C16 15.7761 15.7761 16 15.5 16ZM3.91465 19H8.08535H9.5C9.77614 19 10 18.7761 10 18.5C10 18.2239 9.77614 18 9.5 18H8.08535H3.91465H2.5C2.22386 18 2 18.2239 2 18.5C2 18.7761 2.22386 19 2.5 19H3.91465Z"/>
</symbol><symbol id="plus" viewBox="0 0 17 16">
<path d="M16.9985 8.96844H9.99854V16H7.99854V8.96844H0.998535V6.96844H7.99854V-0.000305176H9.99854V6.96844H16.9985V8.96844Z"/>
</symbol><symbol id="seat" viewBox="0 0 80 80"><g fill="none">
<mask id="path-1-inside-1_9_4" fill="white">
<path fill-rule="evenodd" clip-rule="evenodd" d="M16 0C11.5817 0 8 3.58172 8 8V14H14C17.3137 14 20 16.6863 20 20V58H60V20C60 16.6863 62.6863 14 66 14H72V8C72 3.58172 68.4183 0 64 0H16ZM12 18C14.2091 18 16 19.7909 16 22V58H4C2.46329 58 1.06151 58.5777 0 59.5278V22C0 19.7909 1.79086 18 4 18H12ZM80 59.5278V22C80 19.7909 78.2091 18 76 18H68C65.7909 18 64 19.7909 64 22V58H76C77.5367 58 78.9385 58.5777 80 59.5278ZM4 62C1.79086 62 0 63.7909 0 66V76C0 78.2091 1.79086 80 4 80H76C78.2091 80 80 78.2091 80 76V66C80 63.7909 78.2091 62 76 62H4Z"/>
</mask>
<path d="M8 14H6V16H8V14ZM20 58H18V60H20V58ZM60 58V60H62V58H60ZM72 14V16H74V14H72ZM16 58V60H18V58H16ZM0 59.5278H-2V64.0019L1.33383 61.0181L0 59.5278ZM80 59.5278L78.6662 61.0181L82 64.0019V59.5278H80ZM64 58H62V60H64V58ZM10 8C10 4.68629 12.6863 2 16 2V-2C10.4772 -2 6 2.47715 6 8H10ZM10 14V8H6V14H10ZM14 12H8V16H14V12ZM22 20C22 15.5817 18.4183 12 14 12V16C16.2091 16 18 17.7909 18 20H22ZM22 58V20H18V58H22ZM60 56H20V60H60V56ZM58 20V58H62V20H58ZM66 12C61.5817 12 58 15.5817 58 20H62C62 17.7909 63.7909 16 66 16V12ZM72 12H66V16H72V12ZM70 8V14H74V8H70ZM64 2C67.3137 2 70 4.68629 70 8H74C74 2.47715 69.5228 -2 64 -2V2ZM16 2H64V-2H16V2ZM18 22C18 18.6863 15.3137 16 12 16V20C13.1046 20 14 20.8954 14 22H18ZM18 58V22H14V58H18ZM4 60H16V56H4V60ZM1.33383 61.0181C2.04283 60.3835 2.97425 60 4 60V56C1.95234 56 0.0801959 56.7719 -1.33383 58.0375L1.33383 61.0181ZM-2 22V59.5278H2V22H-2ZM4 16C0.686292 16 -2 18.6863 -2 22H2C2 20.8954 2.89543 20 4 20V16ZM12 16H4V20H12V16ZM78 22V59.5278H82V22H78ZM76 20C77.1046 20 78 20.8954 78 22H82C82 18.6863 79.3137 16 76 16V20ZM68 20H76V16H68V20ZM66 22C66 20.8954 66.8954 20 68 20V16C64.6863 16 62 18.6863 62 22H66ZM66 58V22H62V58H66ZM76 56H64V60H76V56ZM81.3338 58.0375C79.9198 56.7719 78.0477 56 76 56V60C77.0257 60 77.9572 60.3835 78.6662 61.0181L81.3338 58.0375ZM2 66C2 64.8954 2.89543 64 4 64V60C0.686292 60 -2 62.6863 -2 66H2ZM2 76V66H-2V76H2ZM4 78C2.89543 78 2 77.1046 2 76H-2C-2 79.3137 0.686292 82 4 82V78ZM76 78H4V82H76V78ZM78 76C78 77.1046 77.1046 78 76 78V82C79.3137 82 82 79.3137 82 76H78ZM78 66V76H82V66H78ZM76 64C77.1046 64 78 64.8954 78 66H82C82 62.6863 79.3137 60 76 60V64ZM4 64H76V60H4V64Z" fill="#ECF2FF" mask="url(#path-1-inside-1_9_4)"/>
</g></symbol><symbol id="slider-left" viewBox="0 0 13 22">
<path d="M12 1L2 11L12 21" stroke-width="2"/>
</symbol><symbol id="ticket" viewBox="0 0 18 22">
<path fill-rule="evenodd" clip-rule="evenodd" d="M11.5187 0.632788C11.7497 0.277441 12.1142 0 12.538 0H17.0009C17.5532 0 18.0009 0.447715 18.0009 1V21C18.0009 21.5523 17.5532 22 17.0009 22H12.538C12.1142 22 11.7497 21.7226 11.5187 21.3672C10.9838 20.5442 10.0562 20 9.00156 20C7.94688 20 7.01932 20.5442 6.48439 21.3672C6.25342 21.7226 5.88891 22 5.46509 22H1C0.447715 22 0 21.5523 0 21V16H1.5C1.77614 16 2 15.7761 2 15.5C2 15.2239 1.77614 15 1.5 15H0V1C0 0.447716 0.447715 0 1 0H5.46509C5.88891 0 6.25342 0.27744 6.48439 0.632788C7.01932 1.45575 7.94688 2 9.00156 2C10.0562 2 10.9838 1.45575 11.5187 0.632788ZM4 5.5V11.5C4 11.7761 3.77614 12 3.5 12C3.22386 12 3 11.7761 3 11.5V5.5C3 5.22386 3.22386 5 3.5 5C3.77614 5 4 5.22386 4 5.5ZM11 9V8C11 6.89543 10.1046 6 9 6C7.89543 6 7 6.89543 7 8V9C7 10.1046 7.89543 11 9 11C10.1046 11 11 10.1046 11 9ZM9 5C7.34315 5 6 6.34315 6 8V9C6 10.6569 7.34315 12 9 12C10.6569 12 12 10.6569 12 9V8C12 6.34315 10.6569 5 9 5ZM15 11.5V5.5C15 5.22386 14.7761 5 14.5 5C14.2239 5 14 5.22386 14 5.5V11.5C14 11.7761 14.2239 12 14.5 12C14.7761 12 15 11.7761 15 11.5ZM8 15.5C8 15.2239 8.22386 15 8.5 15H9.5C9.77614 15 10 15.2239 10 15.5C10 15.7761 9.77614 16 9.5 16H8.5C8.22386 16 8 15.7761 8 15.5ZM4.5 15C4.22386 15 4 15.2239 4 15.5C4 15.7761 4.22386 16 4.5 16H5.5C5.77614 16 6 15.7761 6 15.5C6 15.2239 5.77614 15 5.5 15H4.5ZM12.5 15C12.2239 15 12 15.2239 12 15.5C12 15.7761 12.2239 16 12.5 16H13.5C13.7761 16 14 15.7761 14 15.5C14 15.2239 13.7761 15 13.5 15H12.5ZM16 15.5C16 15.2239 16.2239 15 16.5 15H18V16H16.5C16.2239 16 16 15.7761 16 15.5Z"/>
</symbol><symbol id="trailers" viewBox="0 0 18 22">
<path fill-rule="evenodd" clip-rule="evenodd" d="M3 1H1.5C1.22386 1 1 1.22386 1 1.5V3.5H3V1ZM15 1V3.5H17V1.5C17 1.22386 16.7761 1 16.5 1H16H15ZM3 4.5H1V7H3V8H1V10.5H3V8H15V10.5H17V8H15V7H17V4.5H15V7H3V4.5ZM3 11.5H1V14H3V15H1V17.5H3V15H15V17.5H17V15H15V14H17V11.5H15V14H3V11.5ZM3 18.5H1V20.5C1 20.7761 1.22386 21 1.5 21H2H3V18.5ZM2 22H1.5C0.671573 22 0 21.3284 0 20.5V18V14.5V11V7.5V4V1.5C0 0.671573 0.671573 0 1.5 0H16H16.5C17.3284 0 18 0.671573 18 1.5V4V7.5V11V14.5V18V20.5C18 21.3284 17.3284 22 16.5 22H2ZM16.5 21H15V18.5H17V20.5C17 20.7761 16.7761 21 16.5 21Z" stroke="none"/>
</symbol></svg>

<svg xmlns="http://www.w3.org/2000/svg" xmlns:xlink="http://www.w3.org/1999/xlink"><symbol id="about-us" viewBox="0 0 18 22">
<path fill-rule="evenodd" clip-rule="evenodd" d="M0 2C0 0.895431 0.895431 0 2 0H16C17.1046 0 18 0.895431 18 2V17C18 18.1046 17.1046 19 16 19H14L10 22V19H2C0.89543 19 0 18.1046 0 17V2ZM8 4H10V6H8V4ZM8 9H6V7H9H10V8V13H12V15H9H6V13H8V9Z"/>
</symbol><symbol id="arrow-down" viewBox="0 0 10 6"><g fill="currentColor">
<path fill-rule="evenodd" clip-rule="evenodd" d="M5.66823 5.39392L9.99579 1.48467L8.65513 0.000549395L4.9979 3.30426L1.34066 0.000549316L0 1.48467L4.32757 5.39392L4.9979 5.99946L5.66823 5.39392Z"/>
</g></symbol><symbol id="breadcrumbs-arrow" viewBox="0 0 6 10"><g fill="currentColor">
<path fill-rule="evenodd" clip-rule="evenodd" d="M5.39337 4.32787L1.48412 0.000300343L-2.99535e-07 1.34096L3.30371 4.9982L-5.86023e-08 8.65543L1.48412 9.99609L5.39337 5.66853L5.99891 4.9982L5.39337 4.32787Z"/>
</g></symbol><symbol id="contacts" viewBox="0 0 19 22">
<path fill-rule="evenodd" clip-rule="evenodd" d="M12.503 0C21.7817 0 17.4242 9.17913 13.1712 13.7082C12.8062 14.0969 12.1998 14.0969 11.8348 13.7082C7.58185 9.17913 3.22432 0 12.503 0ZM12.4981 3.08203C15.9964 3.08203 13.9964 7.19124 12.4988 7.19124C11.0012 7.19124 8.99983 3.08203 12.4981 3.08203ZM4.78353 14.3464C5.05792 14.3154 5.2552 14.0678 5.22417 13.7934C5.19313 13.519 4.94553 13.3217 4.67114 13.3528C4.40458 13.3829 4.12895 13.4378 3.84394 13.5192C3.50811 13.6151 3.19944 13.7491 2.91658 13.9148C2.67832 14.0544 2.59833 14.3607 2.73792 14.599C2.87751 14.8373 3.18382 14.9173 3.42208 14.7777C3.63334 14.6539 3.86452 14.5533 4.1185 14.4808C4.354 14.4135 4.57539 14.37 4.78353 14.3464ZM15.1344 13.8764C14.9002 13.73 14.5917 13.8012 14.4454 14.0354C14.299 14.2695 14.3702 14.578 14.6043 14.7244C15.029 14.9898 15.4335 15.2884 15.7851 15.6179C15.9866 15.8067 16.303 15.7964 16.4918 15.5949C16.6806 15.3934 16.6703 15.077 16.4688 14.8882C16.0598 14.5049 15.6009 14.1679 15.1344 13.8764ZM7.17541 13.8987C6.9407 13.7532 6.63249 13.8255 6.48701 14.0602C6.34153 14.2949 6.41386 14.6032 6.64857 14.7486C7.02058 14.9792 7.34894 15.2924 7.64064 15.6557C7.81353 15.871 8.12824 15.9054 8.34356 15.7325C8.55889 15.5597 8.59328 15.2449 8.42039 15.0296C8.07699 14.6019 7.66692 14.2033 7.17541 13.8987ZM1.9133 16.5415C2.03289 16.2926 1.92805 15.9939 1.67914 15.8743C1.43024 15.7547 1.13152 15.8596 1.01193 16.1085C0.738025 16.6786 0.540075 17.2849 0.396242 17.8738C0.330722 18.1421 0.495072 18.4127 0.763329 18.4782C1.03159 18.5437 1.30217 18.3794 1.36769 18.1111C1.49951 17.5714 1.67669 17.034 1.9133 16.5415ZM17.8778 17.0906C17.8071 16.8236 17.5334 16.6645 17.2665 16.7352C16.9995 16.8059 16.8404 17.0796 16.9111 17.3465C16.9666 17.5563 16.9965 17.7737 16.9965 17.9998C16.9965 18.3094 16.9346 18.5745 16.8293 18.8015C16.7132 19.0521 16.8221 19.3493 17.0726 19.4655C17.3231 19.5817 17.6204 19.4728 17.7365 19.2223C17.9062 18.8563 17.9965 18.4467 17.9965 17.9998C17.9965 17.6845 17.9547 17.381 17.8778 17.0906ZM9.63851 17.096C9.52388 16.8448 9.2273 16.7341 8.97607 16.8487C8.72484 16.9633 8.61411 17.2599 8.72873 17.5112C8.83489 17.7438 8.92919 17.9641 9.01592 18.1667L9.02875 18.1966C9.18771 18.5679 9.39583 18.9036 9.64135 19.2034C9.8163 19.4171 10.1313 19.4485 10.345 19.2735C10.5586 19.0986 10.59 18.7836 10.4151 18.5699C10.2262 18.3392 10.0682 18.0837 9.94802 17.803L9.93425 17.7708L9.93416 17.7706C9.8481 17.5696 9.74965 17.3396 9.63851 17.096ZM12.7853 19.9716C12.5169 19.9064 12.2465 20.071 12.1813 20.3393C12.1161 20.6077 12.2807 20.8781 12.549 20.9433C13.2958 21.1249 14.0729 21.1709 14.7983 21.0783C15.0722 21.0434 15.2659 20.7929 15.2309 20.519C15.1959 20.2451 14.9455 20.0514 14.6716 20.0864C14.0727 20.1628 13.4187 20.1256 12.7853 19.9716ZM1.0191 20.6411C1.03249 20.3653 0.819755 20.1308 0.543937 20.1174C0.26812 20.104 0.0336697 20.3168 0.0202785 20.5926C6.29344e-05 21.009 0.000103191 21.3257 0.000123409 21.4847V21.4848L0.00012624 21.4994C0.00012624 21.7756 0.223984 21.9994 0.500126 21.9994C0.776269 21.9994 1.00013 21.7756 1.00013 21.4994L1.00013 21.4854C1.00011 21.3304 1.00007 21.0331 1.0191 20.6411Z" stroke="none"/>
</symbol><symbol id="news" viewBox="0 0 18 22">
<path fill-rule="evenodd" clip-rule="evenodd" d="M1 0C0.447715 0 0 0.447716 0 1V21C0 21.5523 0.447716 22 1 22H17C17.5523 22 18 21.5523 18 21V1C18 0.447715 17.5523 0 17 0H1ZM3 4H8V9H3V4ZM2 4C2 3.44772 2.44772 3 3 3H8C8.55228 3 9 3.44772 9 4V9C9 9.55228 8.55228 10 8 10H3C2.44772 10 2 9.55228 2 9V4ZM12.9146 3H14.0854H15.5C15.7761 3 16 3.22386 16 3.5C16 3.77614 15.7761 4 15.5 4H14.0854H12.9146H11.5C11.2239 4 11 3.77614 11 3.5C11 3.22386 11.2239 3 11.5 3H12.9146ZM14.0854 6H12.9146H11.5C11.2239 6 11 6.22386 11 6.5C11 6.77614 11.2239 7 11.5 7H12.9146H14.0854H15.5C15.7761 7 16 6.77614 16 6.5C16 6.22386 15.7761 6 15.5 6H14.0854ZM12.9146 9H14.0854H15.5C15.7761 9 16 9.22386 16 9.5C16 9.77614 15.7761 10 15.5 10H14.0854H12.9146H11.5C11.2239 10 11 9.77614 11 9.5C11 9.22386 11.2239 9 11.5 9H12.9146ZM14.0854 13H15.5C15.7761 13 16 12.7761 16 12.5C16 12.2239 15.7761 12 15.5 12H14.0854H3.91465H2.5C2.22386 12 2 12.2239 2 12.5C2 12.7761 2.22386 13 2.5 13H3.91465H14.0854ZM15.5 16H14.0854H3.91465H2.5C2.22386 16 2 15.7761 2 15.5C2 15.2239 2.22386 15 2.5 15H3.91465H14.0854H15.5C15.7761 15 16 15.2239 16 15.5C16 15.7761 15.7761 16 15.5 16ZM3.91465 19H8.08535H9.5C9.77614 19 10 18.7761 10 18.5C10 18.2239 9.77614 18 9.5 18H8.08535H3.91465H2.5C2.22386 18 2 18.2239 2 18.5C2 18.7761 2.22386 19 2.5 19H3.91465Z"/>
</symbol><symbol id="plus" viewBox="0 0 17 16">
<path d="M16.9985 8.96844H9.99854V16H7.99854V8.96844H0.998535V6.96844H7.99854V-0.000305176H9.99854V6.96844H16.9985V8.96844Z"/>
</symbol><symbol id="seat">
  <path d="M16 0a8 8 0 0 0-8 8v6h6a6 6 0 0 1 6 6v38h40V20a6 6 0 0 1 6-6h6V8a8 8 0 0 0-8-8H16Zm-4 18a4 4 0 0 1 4 4v36H4a5.978 5.978 0 0 0-4 1.528V22a4 4 0 0 1 4-4h8Zm68 41.528V22a4 4 0 0 0-4-4h-8a4 4 0 0 0-4 4v36h12c1.537 0 2.939.578 4 1.528ZM4 62a4 4 0 0 0-4 4v10a4 4 0 0 0 4 4h72a4 4 0 0 0 4-4V66a4 4 0 0 0-4-4H4Z"/>
  <path d="M8 14H6v2h2v-2Zm12 44h-2v2h2v-2Zm40 0v2h2v-2h-2Zm12-44v2h2v-2h-2ZM16 58v2h2v-2h-2ZM0 59.528h-2v4.474l3.334-2.984L0 59.528Zm80 0-1.334 1.49L82 64.002v-4.474h-2ZM64 58h-2v2h2v-2ZM10 8a6 6 0 0 1 6-6v-4C10.477-2 6 2.477 6 8h4Zm0 6V8H6v6h4Zm4-2H8v4h6v-4Zm8 8a8 8 0 0 0-8-8v4a4 4 0 0 1 4 4h4Zm0 38V20h-4v38h4Zm38-2H20v4h40v-4Zm-2-36v38h4V20h-4Zm8-8a8 8 0 0 0-8 8h4a4 4 0 0 1 4-4v-4Zm6 0h-6v4h6v-4Zm-2-4v6h4V8h-4Zm-6-6a6 6 0 0 1 6 6h4c0-5.523-4.477-10-10-10v4ZM16 2h48v-4H16v4Zm2 20a6 6 0 0 0-6-6v4a2 2 0 0 1 2 2h4Zm0 36V22h-4v36h4ZM4 60h12v-4H4v4Zm-2.666 1.018A3.978 3.978 0 0 1 4 60v-4c-2.048 0-3.92.772-5.334 2.038l2.668 2.98ZM-2 22v37.528h4V22h-4Zm6-6a6 6 0 0 0-6 6h4a2 2 0 0 1 2-2v-4Zm8 0H4v4h8v-4Zm66 6v37.528h4V22h-4Zm-2-2a2 2 0 0 1 2 2h4a6 6 0 0 0-6-6v4Zm-8 0h8v-4h-8v4Zm-2 2a2 2 0 0 1 2-2v-4a6 6 0 0 0-6 6h4Zm0 36V22h-4v36h4Zm10-2H64v4h12v-4Zm5.334 2.038A7.977 7.977 0 0 0 76 56v4c1.026 0 1.957.383 2.666 1.018l2.668-2.98ZM2 66a2 2 0 0 1 2-2v-4a6 6 0 0 0-6 6h4Zm0 10V66h-4v10h4Zm2 2a2 2 0 0 1-2-2h-4a6 6 0 0 0 6 6v-4Zm72 0H4v4h72v-4Zm2-2a2 2 0 0 1-2 2v4a6 6 0 0 0 6-6h-4Zm0-10v10h4V66h-4Zm-2-2a2 2 0 0 1 2 2h4a6 6 0 0 0-6-6v4ZM4 64h72v-4H4v4Z" stroke="transparent" fill="none"/>
</symbol><symbol id="slider-left" viewBox="0 0 13 22">
<path d="M12 1L2 11L12 21" stroke-width="2"/>
</symbol><symbol id="ticket" viewBox="0 0 18 22">
<path fill-rule="evenodd" clip-rule="evenodd" d="M11.5187 0.632788C11.7497 0.277441 12.1142 0 12.538 0H17.0009C17.5532 0 18.0009 0.447715 18.0009 1V21C18.0009 21.5523 17.5532 22 17.0009 22H12.538C12.1142 22 11.7497 21.7226 11.5187 21.3672C10.9838 20.5442 10.0562 20 9.00156 20C7.94688 20 7.01932 20.5442 6.48439 21.3672C6.25342 21.7226 5.88891 22 5.46509 22H1C0.447715 22 0 21.5523 0 21V16H1.5C1.77614 16 2 15.7761 2 15.5C2 15.2239 1.77614 15 1.5 15H0V1C0 0.447716 0.447715 0 1 0H5.46509C5.88891 0 6.25342 0.27744 6.48439 0.632788C7.01932 1.45575 7.94688 2 9.00156 2C10.0562 2 10.9838 1.45575 11.5187 0.632788ZM4 5.5V11.5C4 11.7761 3.77614 12 3.5 12C3.22386 12 3 11.7761 3 11.5V5.5C3 5.22386 3.22386 5 3.5 5C3.77614 5 4 5.22386 4 5.5ZM11 9V8C11 6.89543 10.1046 6 9 6C7.89543 6 7 6.89543 7 8V9C7 10.1046 7.89543 11 9 11C10.1046 11 11 10.1046 11 9ZM9 5C7.34315 5 6 6.34315 6 8V9C6 10.6569 7.34315 12 9 12C10.6569 12 12 10.6569 12 9V8C12 6.34315 10.6569 5 9 5ZM15 11.5V5.5C15 5.22386 14.7761 5 14.5 5C14.2239 5 14 5.22386 14 5.5V11.5C14 11.7761 14.2239 12 14.5 12C14.7761 12 15 11.7761 15 11.5ZM8 15.5C8 15.2239 8.22386 15 8.5 15H9.5C9.77614 15 10 15.2239 10 15.5C10 15.7761 9.77614 16 9.5 16H8.5C8.22386 16 8 15.7761 8 15.5ZM4.5 15C4.22386 15 4 15.2239 4 15.5C4 15.7761 4.22386 16 4.5 16H5.5C5.77614 16 6 15.7761 6 15.5C6 15.2239 5.77614 15 5.5 15H4.5ZM12.5 15C12.2239 15 12 15.2239 12 15.5C12 15.7761 12.2239 16 12.5 16H13.5C13.7761 16 14 15.7761 14 15.5C14 15.2239 13.7761 15 13.5 15H12.5ZM16 15.5C16 15.2239 16.2239 15 16.5 15H18V16H16.5C16.2239 16 16 15.7761 16 15.5Z"/>
</symbol><symbol id="trailers" viewBox="0 0 18 22">
<path fill-rule="evenodd" clip-rule="evenodd" d="M3 1H1.5C1.22386 1 1 1.22386 1 1.5V3.5H3V1ZM15 1V3.5H17V1.5C17 1.22386 16.7761 1 16.5 1H16H15ZM3 4.5H1V7H3V8H1V10.5H3V8H15V10.5H17V8H15V7H17V4.5H15V7H3V4.5ZM3 11.5H1V14H3V15H1V17.5H3V15H15V17.5H17V15H15V14H17V11.5H15V14H3V11.5ZM3 18.5H1V20.5C1 20.7761 1.22386 21 1.5 21H2H3V18.5ZM2 22H1.5C0.671573 22 0 21.3284 0 20.5V18V14.5V11V7.5V4V1.5C0 0.671573 0.671573 0 1.5 0H16H16.5C17.3284 0 18 0.671573 18 1.5V4V7.5V11V14.5V18V20.5C18 21.3284 17.3284 22 16.5 22H2ZM16.5 21H15V18.5H17V20.5C17 20.7761 16.7761 21 16.5 21Z" stroke="none"/>
</symbol></svg>
